austria/municipalities/41317.svg

<svg xmlns="http://www.w3.org/2000/svg" width="708" height="877" style="shape-rendering:geometricPrecision;text-rendering:geometricPrecision;image-rendering:optimizeQuality;fill-rule:evenodd;clip-rule:evenodd"><path style="opacity:.973" fill="#1e1f1c" d="M-.5-.5h708v544c-7.862 93.815-45.529 173.315-113 238.5-63.394 55.09-137.061 86.59-221 94.5h-40c-95.85-8.844-177.016-47.844-243.5-117-54.256-62.907-84.422-135.907-90.5-219V-.5z"/><path style="opacity:1" fill="#7c6b11" d="M348.5 10.5h-338v530c-1-176.833-1.333-353.833-1-531 113.168-.333 226.168 0 339 1z"/><path style="opacity:1" fill="#fed600" d="M348.5 10.5c.167 17.003 0 34.003-.5 51a156.025 156.025 0 0 1-12 29 612.416 612.416 0 0 1-39 54c-10.863 18.986-14.53 39.32-11 61 2.767 17.04 5.433 34.04 8 51-9.931-21.939-23.764-41.105-41.5-57.5-40.896-28.76-77.729-24.26-110.5 13.5-14.036 18.411-18.703 39.078-14 62l4 16a1830.039 1830.039 0 0 1 15.5 45.5c-1.935 10.968-7.935 13.968-18 9l-10-8c-1.612-.72-3.112-.554-4.5.5 2.793 19.42 11.293 35.92 25.5 49.5 22.081 13.877 40.247 9.711 54.5-12.5 5-12.001 9-24.335 12-37 3.594-9.92 9.76-17.753 18.5-23.5 11.83-3.835 21.33-.669 28.5 9.5 16.336 26.644 23.503 55.644 21.5 87-12.604-.44-18.104 5.56-16.5 18 .606 3.048 2.106 5.548 4.5 7.5-12.168 8.991-14.335 20.158-6.5 33.5a25.55 25.55 0 0 0 6.5 5.5c-5.154 5.344-6.32 11.511-3.5 18.5 3.586 4.876 8.42 7.21 14.5 7 2.65 30.44-3.183 59.107-17.5 86-10.236 13.308-20.569 13.308-31 0a94.09 94.09 0 0 1-7-11 266.24 266.24 0 0 0-16-42c-17.829-26.048-37.829-27.715-60-5-7.197 10.061-12.53 21.061-16 33-1.01 5.058-.51 9.891 1.5 14.5 1.333.667 2.667.667 4 0 13.292-20.142 24.792-19.309 34.5 2.5a468.931 468.931 0 0 1 16 46c13.711 35.615 39.544 50.115 77.5 43.5 15.584-2.264 27.417-10.098 35.5-23.5a149.356 149.356 0 0 0 13-31 3211.427 3211.427 0 0 1 2.5 54c.94 10.909-1.56 20.909-7.5 30-5.708 6.215-11.708 6.548-18 1a964.96 964.96 0 0 1-4.5-11.5c-2.525-.896-4.692-.396-6.5 1.5-9.208 15.83-13.208 32.83-12 51 2.794 10.452 8.628 18.619 17.5 24.5a66.398 66.398 0 0 0 22 1c3.627-.564 6.793-2.064 9.5-4.5 4.012 25.652 16.012 46.652 36 63 .5 14.329.667 28.663.5 43-98.744-5.132-182.244-43.132-250.5-114-52.554-60.804-81.72-131.471-87.5-212v-530h338z"/><path style="opacity:1" fill="#0079c6" d="M358.5 10.5h339c.167 175.667 0 351.334-.5 527-6.184 93.183-42.684 172.016-109.5 236.5-65.312 57.614-141.646 88.114-229 91.5-.167-14.004 0-28.004.5-42 19.937-16.451 32.104-37.451 36.5-63 2.213 2.274 4.879 3.774 8 4.5 21.619 4.278 35.119-4.222 40.5-25.5 1.908-18.78-2.259-36.114-12.5-52-2-1.333-4-1.333-6 0-1.111 5.191-3.445 9.691-7 13.5-5.498 2.597-10.332 1.764-14.5-2.5-6.085-9.827-8.919-20.494-8.5-32a797.506 797.506 0 0 1 3.5-52c3.634 14.935 10.301 28.268 20 40 10.135 9.716 22.302 14.55 36.5 14.5 31.506 3.138 53.672-9.695 66.5-38.5a901.49 901.49 0 0 1 20-55c2.767-6.936 7.6-11.603 14.5-14a20.2 20.2 0 0 1 6 1.5c5 3.667 9.333 8 13 13 1.867.711 3.367.211 4.5-1.5 1.248-8.296.248-16.296-3-24a214.296 214.296 0 0 0-14-24c-23.037-21-42.703-18.333-59 8a288.591 288.591 0 0 0-15 40c-4.018 8.354-9.852 15.187-17.5 20.5-4.787.879-9.453.545-14-1a45.255 45.255 0 0 1-7.5-8.5c-14.023-26.614-19.523-54.948-16.5-85 11.498-.659 16.664-6.659 15.5-18a28.415 28.415 0 0 0-4.5-7.5c10.605-9.495 12.772-20.661 6.5-33.5a76.236 76.236 0 0 1-6.5-6c7.728-10.068 6.061-18.234-5-24.5a32.462 32.462 0 0 0-8-.5c-1.567-31.734 5.933-61.067 22.5-88 13.286-13.508 26.286-13.175 39 1a121.345 121.345 0 0 1 7 13 248.155 248.155 0 0 0 13 39c19.738 25.619 40.738 26.619 63 3 8.695-12.429 14.028-26.096 16-41-1.049-1.017-2.216-1.184-3.5-.5l-9 7c-13.865 6.467-20.031 1.967-18.5-13.5a421.22 421.22 0 0 0 19-58c3.405-45.338-16.428-75.505-59.5-90.5-26.384-4.87-49.384 1.796-69 20-15.568 15.299-28.068 32.799-37.5 52.5 2.305-14.946 4.638-29.946 7-45 4.961-23.479 1.294-45.479-11-66a612.416 612.416 0 0 1-39-54 116.002 116.002 0 0 1-12-32c-.5-15.663-.667-31.33-.5-47z"/><path style="opacity:1" fill="#0f4a70" d="M350.5 410.5c.333-112.835 0-225.501-1-338-.039-1.256.461-2.256 1.5-3 .833 113.834.666 227.501-.5 341z"/><path style="opacity:1" fill="#fed600" d="M356.5 69.5c6.738 16.804 15.571 32.471 26.5 47l25 33c9.61 19.697 12.277 40.364 8 62a547.384 547.384 0 0 1-14 67 934.138 934.138 0 0 0-9 46 612.369 612.369 0 0 0 .5 86h-37v-341z"/><path style="opacity:1" fill="#0079c6" d="M349.5 72.5c1 112.499 1.333 225.165 1 338h-37a762.42 762.42 0 0 0 1.5-83 976.857 976.857 0 0 1-4-25 737.408 737.408 0 0 1-20-100c-3.471-20.438.196-39.438 11-57a680.22 680.22 0 0 0 36-49 132.211 132.211 0 0 0 11.5-24z"/><path style="opacity:1" fill="#0079c6" d="M190.5 185.5c18.335-1.726 35.335 2.107 51 11.5 23.594 18.932 41.094 42.432 52.5 70.5 11.932 28.994 17.432 59.161 16.5 90.5a660.09 660.09 0 0 1-2 52.5h-28c2.279-33.892-5.888-64.892-24.5-93-15.029-13.637-29.696-13.304-44 1a93.76 93.76 0 0 0-9 16 398.621 398.621 0 0 1-12 37c-17.965 24.634-36.965 25.301-57 2-5.7-8.719-9.7-18.052-12-28 6.098 5.662 13.264 7.495 21.5 5.5 3.558-1.892 6.058-4.725 7.5-8.5a49.226 49.226 0 0 0 0-14l-14-38c-14.537-51.594 3.296-86.594 53.5-105z"/><path style="opacity:1" fill="#fdd500" d="M495.5 185.5c31.919-.626 56.085 12.708 72.5 40 7.155 14.188 9.488 29.188 7 45a314.3 314.3 0 0 1-18 57c-3.645 9.637-1.479 17.47 6.5 23.5 8.315 1.87 15.648.037 22-5.5-2.934 13.352-9.267 25.186-19 35.5-19.387 14.935-35.887 12.102-49.5-8.5a239.513 239.513 0 0 1-12-37c-2.994-7.33-6.994-13.997-12-20-14.969-11.578-28.969-10.578-42 3-14.231 21.144-22.231 44.477-24 70a242.43 242.43 0 0 0-.5 22h-28a602.857 602.857 0 0 1-.5-85c5.865-45.679 24.365-85.179 55.5-118.5 12.086-11.208 26.086-18.375 42-21.5z"/><path style="opacity:1" fill="#0079c5" d="M268.5 415.5h83v18c-27.669.167-55.335 0-83-.5-4.655-2.897-6.155-7.063-4.5-12.5a31.447 31.447 0 0 0 4.5-5z"/><path style="opacity:1" fill="#fed600" d="M356.5 415.5c27.335-.167 54.669 0 82 .5 5.498 3.16 6.998 7.66 4.5 13.5a11.532 11.532 0 0 1-4.5 3.5c-27.331.5-54.665.667-82 .5v-18z"/><path style="opacity:1" fill="#0079c5" d="M350.5 438.5v33h-81c-8.145-2.59-12.145-8.256-12-17 .382-7.891 4.382-13.057 12-15.5 26.998-.5 53.998-.667 81-.5z"/><path style="opacity:1" fill="#fad201" d="M356.5 438.5c27.335-.167 54.669 0 82 .5 7.733 2.304 11.399 7.47 11 15.5.52 8.974-3.48 14.807-12 17.5-26.998.5-53.998.667-81 .5v-34z"/><path style="opacity:1" fill="#0f4a70" d="M350.5 438.5c.995 11.154 1.328 22.488 1 34a1681.8 1681.8 0 0 1-82-1h81v-33z"/><path style="opacity:1" fill="#0079c6" d="M350.5 477.5v17h-81c-5.627-2.088-7.461-6.088-5.5-12a11.532 11.532 0 0 1 3.5-4.5c27.665-.5 55.331-.667 83-.5z"/><path style="opacity:1" fill="#fbd300" d="M356.5 477.5c27.669-.167 55.335 0 83 .5 6.912 6.167 6.579 11.833-1 17-27.331.5-54.665.667-82 .5v-18z"/><path style="opacity:1" fill="#095e94" d="M350.5 477.5c.99 5.81 1.323 11.81 1 18a1681.8 1681.8 0 0 1-82-1h81v-17z"/><path style="opacity:1" fill="#0079c5" d="M278.5 500.5h28a843.583 843.583 0 0 1 1.5 83c-.849 21.958-6.849 42.292-18 61-6.319 8.981-14.819 14.815-25.5 17.5-35.226 8.965-60.393-2.868-75.5-35.5a486.286 486.286 0 0 0-21-57c-11.356-16.994-23.356-17.328-36-1-.667-2-.667-4 0-6 4.112-13.727 10.946-25.894 20.5-36.5 7.749-6.917 16.749-9.583 27-8 8.118 4.451 14.618 10.617 19.5 18.5a399.212 399.212 0 0 1 16 42c4.397 9.064 10.897 16.231 19.5 21.5 11.379 2.721 20.213-.779 26.5-10.5 14.953-27.817 20.786-57.484 17.5-89z"/><path style="opacity:1" fill="#0178c4" d="M311.5 500.5h40c.167 106.334 0 212.667-.5 319-19.781-16.73-31.615-37.897-35.5-63.5-2-.667-4-.667-6 0-1.877 2.106-4.21 3.439-7 4-11.446 3.04-20.946.206-28.5-8.5-6.113-9.111-8.113-19.111-6-30 1.882-9.742 5.382-18.742 10.5-27 4.225 11.612 12.225 15.445 24 11.5 2.5-1.167 4.333-3 5.5-5.5a91.805 91.805 0 0 0 8-20c.166-28.357-.668-56.69-2.5-85a682.204 682.204 0 0 0-2-95z"/><path style="opacity:1" fill="#fed600" d="M356.5 500.5h39a43583.598 43583.598 0 0 1-4.5 178c2.066 9.884 6.233 18.718 12.5 26.5 12.609 5.242 21.109 1.409 25.5-11.5 8.701 14.14 12.034 29.473 10 46-5.167 18.137-17 24.97-35.5 20.5l-6-4c-2.525-.896-4.692-.396-6.5 1.5-3.333 24.668-14.5 45.002-33.5 61-1-105.998-1.333-211.998-1-318z"/><path style="opacity:1" fill="#fcd500" d="M400.5 500.5h28c-2.872 31.109 2.961 60.442 17.5 88 3.214 4.882 7.381 8.715 12.5 11.5 9.129 2.209 16.963.042 23.5-6.5a104.265 104.265 0 0 0 11-16 479.943 479.943 0 0 1 15-40c4.5-8.5 11-15 19.5-19.5 18.241-.793 31.408 7.041 39.5 23.5 5.325 8.634 8.325 17.967 9 28-15.555-18.847-28.555-17.181-39 5a682.59 682.59 0 0 0-17 48c-12.951 34.118-37.451 47.618-73.5 40.5-11.762-2.085-21.262-7.918-28.5-17.5-11.276-19.094-17.61-39.76-19-62a905.371 905.371 0 0 1 1.5-83z"/></svg>

<?xml version="1.0" encoding="UTF-8"?>
<!DOCTYPE svg PUBLIC "-//W3C//DTD SVG 1.1//EN" "http://www.w3.org/Graphics/SVG/1.1/DTD/svg11.dtd">
<svg xmlns="http://www.w3.org/2000/svg" version="1.1" width="708px" height="877px" style="shape-rendering:geometricPrecision; text-rendering:geometricPrecision; image-rendering:optimizeQuality; fill-rule:evenodd; clip-rule:evenodd" xmlns:xlink="http://www.w3.org/1999/xlink">
<g><path style="opacity:0.973" fill="#1e1f1c" d="M -0.5,-0.5 C 235.5,-0.5 471.5,-0.5 707.5,-0.5C 707.5,180.833 707.5,362.167 707.5,543.5C 699.638,637.315 661.971,716.815 594.5,782C 531.106,837.09 457.439,868.59 373.5,876.5C 360.167,876.5 346.833,876.5 333.5,876.5C 237.65,867.656 156.484,828.656 90,759.5C 35.7444,696.593 5.57769,623.593 -0.5,540.5C -0.5,360.167 -0.5,179.833 -0.5,-0.5 Z"/></g>
<g><path style="opacity:1" fill="#7c6b11" d="M 348.5,10.5 C 235.833,10.5 123.167,10.5 10.5,10.5C 10.5,187.167 10.5,363.833 10.5,540.5C 9.50032,363.667 9.16698,186.667 9.5,9.5C 122.668,9.16716 235.668,9.50049 348.5,10.5 Z"/></g>
<g><path style="opacity:1" fill="#fed600" d="M 348.5,10.5 C 348.667,27.5033 348.5,44.5033 348,61.5C 344.979,71.5596 340.979,81.2263 336,90.5C 323.98,109.207 310.98,127.207 297,144.5C 286.137,163.486 282.47,183.82 286,205.5C 288.767,222.54 291.433,239.54 294,256.5C 284.069,234.561 270.236,215.395 252.5,199C 211.604,170.24 174.771,174.74 142,212.5C 127.964,230.911 123.297,251.578 128,274.5C 129.333,279.833 130.667,285.167 132,290.5C 137.375,305.625 142.541,320.791 147.5,336C 145.565,346.968 139.565,349.968 129.5,345C 126.167,342.333 122.833,339.667 119.5,337C 117.888,336.28 116.388,336.446 115,337.5C 117.793,356.92 126.293,373.42 140.5,387C 162.581,400.877 180.747,396.711 195,374.5C 200,362.499 204,350.165 207,337.5C 210.594,327.58 216.76,319.747 225.5,314C 237.33,310.165 246.83,313.331 254,323.5C 270.336,350.144 277.503,379.144 275.5,410.5C 262.896,410.06 257.396,416.06 259,428.5C 259.606,431.548 261.106,434.048 263.5,436C 251.332,444.991 249.165,456.158 257,469.5C 258.873,471.709 261.04,473.542 263.5,475C 258.346,480.344 257.18,486.511 260,493.5C 263.586,498.376 268.42,500.71 274.5,500.5C 277.15,530.94 271.317,559.607 257,586.5C 246.764,599.808 236.431,599.808 226,586.5C 223.417,583.003 221.084,579.336 219,575.5C 214.848,561.043 209.515,547.043 203,533.5C 185.171,507.452 165.171,505.785 143,528.5C 135.803,538.561 130.47,549.561 127,561.5C 125.99,566.558 126.49,571.391 128.5,576C 129.833,576.667 131.167,576.667 132.5,576C 145.792,555.858 157.292,556.691 167,578.5C 173.126,593.544 178.459,608.877 183,624.5C 196.711,660.115 222.544,674.615 260.5,668C 276.084,665.736 287.917,657.902 296,644.5C 301.51,634.632 305.843,624.299 309,613.5C 309.985,631.493 310.818,649.493 311.5,667.5C 312.44,678.409 309.94,688.409 304,697.5C 298.292,703.715 292.292,704.048 286,698.5C 284.45,694.611 282.95,690.778 281.5,687C 278.975,686.104 276.808,686.604 275,688.5C 265.792,704.33 261.792,721.33 263,739.5C 265.794,749.952 271.628,758.119 280.5,764C 287.753,765.557 295.086,765.89 302.5,765C 306.127,764.436 309.293,762.936 312,760.5C 316.012,786.152 328.012,807.152 348,823.5C 348.5,837.829 348.667,852.163 348.5,866.5C 249.756,861.368 166.256,823.368 98,752.5C 45.4461,691.696 16.2794,621.029 10.5,540.5C 10.5,363.833 10.5,187.167 10.5,10.5C 123.167,10.5 235.833,10.5 348.5,10.5 Z"/></g>
<g><path style="opacity:1" fill="#0079c6" d="M 358.5,10.5 C 471.5,10.5 584.5,10.5 697.5,10.5C 697.667,186.167 697.5,361.834 697,537.5C 690.816,630.683 654.316,709.516 587.5,774C 522.188,831.614 445.854,862.114 358.5,865.5C 358.333,851.496 358.5,837.496 359,823.5C 378.937,807.049 391.104,786.049 395.5,760.5C 397.713,762.774 400.379,764.274 403.5,765C 425.119,769.278 438.619,760.778 444,739.5C 445.908,720.72 441.741,703.386 431.5,687.5C 429.5,686.167 427.5,686.167 425.5,687.5C 424.389,692.691 422.055,697.191 418.5,701C 413.002,703.597 408.168,702.764 404,698.5C 397.915,688.673 395.081,678.006 395.5,666.5C 396.1,649.128 397.267,631.795 399,614.5C 402.634,629.435 409.301,642.768 419,654.5C 429.135,664.216 441.302,669.05 455.5,669C 487.006,672.138 509.172,659.305 522,630.5C 528.076,611.937 534.743,593.604 542,575.5C 544.767,568.564 549.6,563.897 556.5,561.5C 558.577,561.692 560.577,562.192 562.5,563C 567.5,566.667 571.833,571 575.5,576C 577.367,576.711 578.867,576.211 580,574.5C 581.248,566.204 580.248,558.204 577,550.5C 572.838,542.172 568.171,534.172 563,526.5C 539.963,505.5 520.297,508.167 504,534.5C 498.014,547.457 493.014,560.79 489,574.5C 484.982,582.854 479.148,589.687 471.5,595C 466.713,595.879 462.047,595.545 457.5,594C 454.628,591.463 452.128,588.63 450,585.5C 435.977,558.886 430.477,530.552 433.5,500.5C 444.998,499.841 450.164,493.841 449,482.5C 447.877,479.751 446.377,477.251 444.5,475C 455.105,465.505 457.272,454.339 451,441.5C 448.697,439.607 446.53,437.607 444.5,435.5C 452.228,425.432 450.561,417.266 439.5,411C 436.854,410.503 434.187,410.336 431.5,410.5C 429.933,378.766 437.433,349.433 454,322.5C 467.286,308.992 480.286,309.325 493,323.5C 495.588,327.674 497.921,332.007 500,336.5C 503.259,349.872 507.592,362.872 513,375.5C 532.738,401.119 553.738,402.119 576,378.5C 584.695,366.071 590.028,352.404 592,337.5C 590.951,336.483 589.784,336.316 588.5,337C 585.5,339.333 582.5,341.667 579.5,344C 565.635,350.467 559.469,345.967 561,330.5C 568.744,311.602 575.077,292.268 580,272.5C 583.405,227.162 563.572,196.995 520.5,182C 494.116,177.13 471.116,183.796 451.5,202C 435.932,217.299 423.432,234.799 414,254.5C 416.305,239.554 418.638,224.554 421,209.5C 425.961,186.021 422.294,164.021 410,143.5C 396.02,126.207 383.02,108.207 371,89.5C 365.418,79.4202 361.418,68.7535 359,57.5C 358.5,41.8369 358.333,26.1702 358.5,10.5 Z"/></g>
<g><path style="opacity:1" fill="#0f4a70" d="M 350.5,410.5 C 350.833,297.665 350.5,184.999 349.5,72.5C 349.461,71.2438 349.961,70.2438 351,69.5C 351.833,183.334 351.666,297.001 350.5,410.5 Z"/></g>
<g><path style="opacity:1" fill="#fed600" d="M 356.5,69.5 C 363.238,86.3044 372.071,101.971 383,116.5C 391.333,127.5 399.667,138.5 408,149.5C 417.61,169.197 420.277,189.864 416,211.5C 412.726,234.148 408.06,256.481 402,278.5C 398.615,293.759 395.615,309.093 393,324.5C 391.151,353.173 391.318,381.84 393.5,410.5C 381.167,410.5 368.833,410.5 356.5,410.5C 356.5,296.833 356.5,183.167 356.5,69.5 Z"/></g>
<g><path style="opacity:1" fill="#0079c6" d="M 349.5,72.5 C 350.5,184.999 350.833,297.665 350.5,410.5C 338.167,410.5 325.833,410.5 313.5,410.5C 315.507,382.878 316.007,355.211 315,327.5C 313.56,319.19 312.226,310.857 311,302.5C 302.025,269.627 295.359,236.293 291,202.5C 287.529,182.062 291.196,163.062 302,145.5C 314.733,129.7 326.733,113.366 338,96.5C 342.649,88.8695 346.482,80.8695 349.5,72.5 Z"/></g>
<g><path style="opacity:1" fill="#0079c6" d="M 190.5,185.5 C 208.835,183.774 225.835,187.607 241.5,197C 265.094,215.932 282.594,239.432 294,267.5C 305.932,296.494 311.432,326.661 310.5,358C 310.53,375.532 309.863,393.032 308.5,410.5C 299.167,410.5 289.833,410.5 280.5,410.5C 282.779,376.608 274.612,345.608 256,317.5C 240.971,303.863 226.304,304.196 212,318.5C 208.493,323.51 205.493,328.843 203,334.5C 199.603,347.026 195.603,359.359 191,371.5C 173.035,396.134 154.035,396.801 134,373.5C 128.3,364.781 124.3,355.448 122,345.5C 128.098,351.162 135.264,352.995 143.5,351C 147.058,349.108 149.558,346.275 151,342.5C 151.667,337.833 151.667,333.167 151,328.5C 146.333,315.833 141.667,303.167 137,290.5C 122.463,238.906 140.296,203.906 190.5,185.5 Z"/></g>
<g><path style="opacity:1" fill="#fdd500" d="M 495.5,185.5 C 527.419,184.874 551.585,198.208 568,225.5C 575.155,239.688 577.488,254.688 575,270.5C 570.825,290.027 564.825,309.027 557,327.5C 553.355,337.137 555.521,344.97 563.5,351C 571.815,352.87 579.148,351.037 585.5,345.5C 582.566,358.852 576.233,370.686 566.5,381C 547.113,395.935 530.613,393.102 517,372.5C 511.994,360.483 507.994,348.15 505,335.5C 502.006,328.17 498.006,321.503 493,315.5C 478.031,303.922 464.031,304.922 451,318.5C 436.769,339.644 428.769,362.977 427,388.5C 426.5,395.826 426.334,403.159 426.5,410.5C 417.167,410.5 407.833,410.5 398.5,410.5C 396.333,382.171 396.167,353.837 398,325.5C 403.865,279.821 422.365,240.321 453.5,207C 465.586,195.792 479.586,188.625 495.5,185.5 Z"/></g>
<g><path style="opacity:1" fill="#0079c5" d="M 268.5,415.5 C 296.167,415.5 323.833,415.5 351.5,415.5C 351.5,421.5 351.5,427.5 351.5,433.5C 323.831,433.667 296.165,433.5 268.5,433C 263.845,430.103 262.345,425.937 264,420.5C 265.707,418.963 267.207,417.296 268.5,415.5 Z"/></g>
<g><path style="opacity:1" fill="#fed600" d="M 356.5,415.5 C 383.835,415.333 411.169,415.5 438.5,416C 443.998,419.16 445.498,423.66 443,429.5C 441.786,431.049 440.286,432.215 438.5,433C 411.169,433.5 383.835,433.667 356.5,433.5C 356.5,427.5 356.5,421.5 356.5,415.5 Z"/></g>
<g><path style="opacity:1" fill="#0079c5" d="M 350.5,438.5 C 350.5,449.5 350.5,460.5 350.5,471.5C 323.5,471.5 296.5,471.5 269.5,471.5C 261.355,468.91 257.355,463.244 257.5,454.5C 257.882,446.609 261.882,441.443 269.5,439C 296.498,438.5 323.498,438.333 350.5,438.5 Z"/></g>
<g><path style="opacity:1" fill="#fad201" d="M 356.5,438.5 C 383.835,438.333 411.169,438.5 438.5,439C 446.233,441.304 449.899,446.47 449.5,454.5C 450.02,463.474 446.02,469.307 437.5,472C 410.502,472.5 383.502,472.667 356.5,472.5C 356.5,461.167 356.5,449.833 356.5,438.5 Z"/></g>
<g><path style="opacity:1" fill="#0f4a70" d="M 350.5,438.5 C 351.495,449.654 351.828,460.988 351.5,472.5C 323.995,472.831 296.662,472.498 269.5,471.5C 296.5,471.5 323.5,471.5 350.5,471.5C 350.5,460.5 350.5,449.5 350.5,438.5 Z"/></g>
<g><path style="opacity:1" fill="#0079c6" d="M 350.5,477.5 C 350.5,483.167 350.5,488.833 350.5,494.5C 323.5,494.5 296.5,494.5 269.5,494.5C 263.873,492.412 262.039,488.412 264,482.5C 264.785,480.714 265.951,479.214 267.5,478C 295.165,477.5 322.831,477.333 350.5,477.5 Z"/></g>
<g><path style="opacity:1" fill="#fbd300" d="M 356.5,477.5 C 384.169,477.333 411.835,477.5 439.5,478C 446.412,484.167 446.079,489.833 438.5,495C 411.169,495.5 383.835,495.667 356.5,495.5C 356.5,489.5 356.5,483.5 356.5,477.5 Z"/></g>
<g><path style="opacity:1" fill="#095e94" d="M 350.5,477.5 C 351.49,483.31 351.823,489.31 351.5,495.5C 323.995,495.831 296.662,495.498 269.5,494.5C 296.5,494.5 323.5,494.5 350.5,494.5C 350.5,488.833 350.5,483.167 350.5,477.5 Z"/></g>
<g><path style="opacity:1" fill="#0079c5" d="M 278.5,500.5 C 287.833,500.5 297.167,500.5 306.5,500.5C 308.362,528.136 308.862,555.803 308,583.5C 307.151,605.458 301.151,625.792 290,644.5C 283.681,653.481 275.181,659.315 264.5,662C 229.274,670.965 204.107,659.132 189,626.5C 183.187,607.06 176.187,588.06 168,569.5C 156.644,552.506 144.644,552.172 132,568.5C 131.333,566.5 131.333,564.5 132,562.5C 136.112,548.773 142.946,536.606 152.5,526C 160.249,519.083 169.249,516.417 179.5,518C 187.618,522.451 194.118,528.617 199,536.5C 205.122,550.199 210.455,564.199 215,578.5C 219.397,587.564 225.897,594.731 234.5,600C 245.879,602.721 254.713,599.221 261,589.5C 275.953,561.683 281.786,532.016 278.5,500.5 Z"/></g>
<g><path style="opacity:1" fill="#0178c4" d="M 311.5,500.5 C 324.833,500.5 338.167,500.5 351.5,500.5C 351.667,606.834 351.5,713.167 351,819.5C 331.219,802.77 319.385,781.603 315.5,756C 313.5,755.333 311.5,755.333 309.5,756C 307.623,758.106 305.29,759.439 302.5,760C 291.054,763.04 281.554,760.206 274,751.5C 267.887,742.389 265.887,732.389 268,721.5C 269.882,711.758 273.382,702.758 278.5,694.5C 282.725,706.112 290.725,709.945 302.5,706C 305,704.833 306.833,703 308,700.5C 311.45,694.152 314.116,687.485 316,680.5C 316.166,652.143 315.332,623.81 313.5,595.5C 315.041,563.785 314.375,532.119 311.5,500.5 Z"/></g>
<g><path style="opacity:1" fill="#fed600" d="M 356.5,500.5 C 369.5,500.5 382.5,500.5 395.5,500.5C 394.121,559.844 392.621,619.178 391,678.5C 393.066,688.384 397.233,697.218 403.5,705C 416.109,710.242 424.609,706.409 429,693.5C 437.701,707.64 441.034,722.973 439,739.5C 433.833,757.637 422,764.47 403.5,760C 401.5,758.667 399.5,757.333 397.5,756C 394.975,755.104 392.808,755.604 391,757.5C 387.667,782.168 376.5,802.502 357.5,818.5C 356.5,712.502 356.167,606.502 356.5,500.5 Z"/></g>
<g><path style="opacity:1" fill="#fcd500" d="M 400.5,500.5 C 409.833,500.5 419.167,500.5 428.5,500.5C 425.628,531.609 431.461,560.942 446,588.5C 449.214,593.382 453.381,597.215 458.5,600C 467.629,602.209 475.463,600.042 482,593.5C 486.161,588.514 489.827,583.181 493,577.5C 497.41,563.934 502.41,550.601 508,537.5C 512.5,529 519,522.5 527.5,518C 545.741,517.207 558.908,525.041 567,541.5C 572.325,550.134 575.325,559.467 576,569.5C 560.445,550.653 547.445,552.319 537,574.5C 530.742,590.273 525.075,606.273 520,622.5C 507.049,656.618 482.549,670.118 446.5,663C 434.738,660.915 425.238,655.082 418,645.5C 406.724,626.406 400.39,605.74 399,583.5C 398.231,555.808 398.731,528.141 400.5,500.5 Z"/></g>
</svg>
